packages/ui-icons/svg/Solid/table-merge-cells.svg

<svg viewBox="0 0 1920 1920" version="1.1" xmlns="http://www.w3.org/2000/svg">
    <path d="M1694.11765,0 C1818.69176,0 1920,101.308235 1920,225.882353 L1920,1694.11765 C1920,1818.69176 1818.69176,1920 1694.11765,1920 L225.882353,1920 C101.308235,1920 0,1818.69176 0,1694.11765 L0,225.882353 C0,101.308235 101.308235,0 225.882353,0 L1694.11765,0 Z M790.588235,564.705882 L1129.41176,564.705882 L1129.41176,225.882353 L790.588235,225.882353 L790.588235,564.705882 Z M225.882353,564.705882 L564.705882,564.705882 L564.705882,225.882353 L225.882353,225.882353 L225.882353,564.705882 Z M225.882353,1129.41176 L564.705882,1129.41176 L564.705882,790.588235 L225.882353,790.588235 L225.882353,1129.41176 Z M225.882353,1694.11765 L564.705882,1694.11765 L564.705882,1355.29412 L225.882353,1355.29412 L225.882353,1694.11765 Z M790.230588,1694.58824 L1694.23059,1694.58824 L1694.23059,790.588235 L790.230588,790.588235 L790.230588,1694.58824 Z M1355.29412,564.705882 L1694.11765,564.705882 L1694.11765,225.882353 L1355.29412,225.882353 L1355.29412,564.705882 Z" stroke="none" stroke-width="1" fill-rule="evenodd"/>
</svg>

<svg viewBox="0 0 1920 1920" xmlns="http://www.w3.org/2000/svg">
    <path d="M1694.118 0C1818.692 0 1920 101.308 1920 225.882v1468.236c0 124.574-101.308 225.882-225.882 225.882H225.882C101.308 1920 0 1818.692 0 1694.118V225.882C0 101.308 101.308 0 225.882 0h1468.236Zm-903.53 564.706h338.824V225.882H790.588v338.824Zm-564.706 0h338.824V225.882H225.882v338.824Zm0 564.706h338.824V790.588H225.882v338.824Zm0 564.706h338.824v-338.824H225.882v338.824Zm564.349.47h904v-904h-904v904Zm565.063-1129.882h338.824V225.882h-338.824v338.824Z" fill-rule="evenodd"/>
</svg>
